icons/google-maps.svg

<?xml version="1.0" encoding="UTF-8"?>
<svg width="256px" height="367px" viewBox="0 0 256 367" version="1.1" xmlns="http://www.w3.org/2000/svg" xmlns:xlink="http://www.w3.org/1999/xlink" preserveAspectRatio="xMidYMid">
    <g>
        <path d="M70.5853976,271.865254 C81.1995596,285.391378 90.8598594,299.639537 99.4963338,314.50654 C106.870174,328.489419 109.94381,337.97007 115.333495,354.817346 C118.638014,364.124835 121.625069,366.902652 128.046515,366.902652 C135.045169,366.902652 138.219816,362.176756 140.672953,354.867852 C145.766819,338.95854 149.763988,326.815514 156.069992,315.343493 C168.443902,293.193112 183.819296,273.510299 198.927732,254.592287 C203.018698,249.238677 229.462067,218.047767 241.366994,193.437035 C241.366994,193.437035 255.999233,166.402027 255.999233,128.645368 C255.999233,93.3274168 241.569017,68.8321265 241.569017,68.8321265 L200.024428,79.9578224 L174.793197,146.408963 L168.552129,155.57215 L167.303915,157.231625 L165.64444,159.309576 L162.729537,162.628525 L158.56642,166.791642 L136.098575,185.09637 L79.928962,217.528279 L70.5853976,271.865254 Z" fill="#34A853"></path>
        <path d="M12.6120081,188.891517 C26.3207125,220.205084 52.7568668,247.730719 70.6431185,271.8869 L165.64444,159.352866 C165.64444,159.352866 152.260416,176.856717 127.981579,176.856717 C100.939355,176.856717 79.0920095,155.2619 79.0920095,128.032084 C79.0920095,109.359386 90.325932,96.5309245 90.325932,96.5309245 L25.8373003,113.811107 L12.6120081,188.891517 Z" fill="#FBBC04"></path>
        <path d="M166.705061,5.78651629 C198.256727,15.959818 225.262874,37.3165365 241.597878,68.8104812 L165.673301,159.28793 C165.673301,159.28793 176.907223,146.228586 176.907223,127.671329 C176.907223,99.8065834 153.443693,78.990998 128.09702,78.990998 C104.128433,78.990998 90.3620076,96.4659886 90.3620076,96.4659886 L90.3620076,39.4666386 L166.705061,5.78651629 Z" fill="#4285F4"></path>
        <path d="M30.0148476,45.7654275 C48.8607087,23.2182162 82.0213432,0 127.736265,0 C149.915506,0 166.625695,5.82259183 166.625695,5.82259183 L90.2898565,96.5164943 L36.2054099,96.5164943 L30.0148476,45.7654275 Z" fill="#1A73E8"></path>
        <path d="M12.6120081,188.891517 C12.6120081,188.891517 0,164.194204 0,128.414485 C0,94.5972757 13.145926,65.0369799 30.0148476,45.7654275 L90.3331471,96.5237094 L12.6120081,188.891517 Z" fill="#EA4335"></path>
    </g>
</svg>

<svg xmlns="http://www.w3.org/2000/svg" viewBox="0 0 255.999 366.903">
  <path fill="#34a853" d="M70.585 271.865a370.713 370.713 0 0 1 28.911 42.642c7.374 13.982 10.448 23.463 15.837 40.31 3.305 9.308 6.292 12.086 12.714 12.086 6.998 0 10.173-4.726 12.626-12.035 5.094-15.91 9.091-28.052 15.397-39.525 12.374-22.15 27.75-41.833 42.858-60.75 4.09-5.354 30.534-36.545 42.439-61.156 0 0 14.632-27.035 14.632-64.792 0-35.318-14.43-59.813-14.43-59.813l-41.545 11.126-25.23 66.451-6.242 9.163-1.248 1.66-1.66 2.078-2.914 3.319-4.164 4.163-22.467 18.304-56.17 32.432z"/>
  <path fill="#fbbc04" d="M12.612 188.892c13.709 31.313 40.145 58.839 58.031 82.995l95.001-112.534s-13.384 17.504-37.662 17.504c-27.043 0-48.89-21.595-48.89-48.825 0-18.673 11.234-31.501 11.234-31.501l-64.489 17.28z"/>
  <path fill="#4285f4" d="M166.705 5.787c31.552 10.173 58.558 31.53 74.893 63.023l-75.925 90.478s11.234-13.06 11.234-31.617c0-27.864-23.463-48.68-48.81-48.68-23.969 0-37.735 17.475-37.735 17.475v-57z"/>
  <path fill="#1a73e8" d="M30.015 45.765C48.86 23.218 82.02 0 127.736 0c22.18 0 38.89 5.823 38.89 5.823L90.29 96.516H36.205z"/>
  <path fill="#ea4335" d="M12.612 188.892S0 164.194 0 128.414c0-33.817 13.146-63.377 30.015-82.649l60.318 50.759z"/>
</svg>
